img/svg/arrow-lang.svg

<svg width="10" height="16" viewBox="0 0 10 16" fill="none" xmlns="http://www.w3.org/2000/svg">
<path d="M2.70711 6.29289C2.31658 5.90237 1.68342 5.90237 1.29289 6.29289C0.902369 6.68342 0.902369 7.31658 1.29289 7.70711L2.70711 6.29289ZM5 10L4.29289 10.7071C4.68342 11.0976 5.31658 11.0976 5.70711 10.7071L5 10ZM8.70711 7.70711C9.09763 7.31658 9.09763 6.68342 8.70711 6.29289C8.31658 5.90237 7.68342 5.90237 7.29289 6.29289L8.70711 7.70711ZM1.29289 7.70711L4.29289 10.7071L5.70711 9.29289L2.70711 6.29289L1.29289 7.70711ZM5.70711 10.7071L8.70711 7.70711L7.29289 6.29289L4.29289 9.29289L5.70711 10.7071Z" fill="black"/>
</svg>

<svg xmlns="http://www.w3.org/2000/svg" width="10" height="16" fill="none" ><path d="M2.707 6.293a1 1 0 1 0-1.414 1.414l1.414-1.414zM5 10l-.707.707a1 1 0 0 0 1.414 0L5 10zm3.707-2.293a1 1 0 1 0-1.414-1.414l1.414 1.414zm-7.414 0l3 3 1.414-1.414-3-3-1.414 1.414zm4.414 3l3-3-1.414-1.414-3 3 1.414 1.414z" fill="#000"/></svg>
